X: 2
T: Stella Splendens
B: Llibre Vermeil
H: 14th Century
F:http://www.cervantesvirtual.com/s3/BVMC_OBRAS/ff6/fe3/e28/2b1/11d/fac/c70/021/85c/e60/64/mimes/imagenes/ff6fe3e2-82b1-11df-acc7-002185ce6064_104.jpg
F:http://www.cervantesvirtual.com/s3/BVMC_OBRAS/ff6/fe3/e28/2b1/11d/fac/c70/021/85c/e60/64/mimes/imagenes/ff6fe3e2-82b1-11df-acc7-002185ce6064_193.jpg
Z:Ali Corbin <ali.corbin:gmail.com>
N: 
M: 2/4
L: 1/4
Q: 1/4=120
K: D Dorian
%
%
V: 1
%Staff 1
%%MIDI program 74
 (A A/G/)|A     F| D    F|(G2|_B/A/F/G/)|E D | F  G |(G/F/) D|C2 |
w:Stel-**la splen-dens in mon- * * * *  te Ut so-lus ra-*  di-um
 (A A/G/)|A  F| D   F|(G2|_B/A/F/G/)|E  D| F  G|(G/F/) (D/E/4C/4)|D2 ||
w:Mi-**  ra-cu-lis ser-ra-* * * *  to, E-xau-di po-*   pu-**  lum
%
   D   D | A   B |d (B|c/A/) G |B   c | A (G/F/)|(F/E/) D |
w:Con-cur-runt u-ni-ver-**  si Gau-den-tes po-*   pu-*  li,
   D  D| A  B| d (B|c/A/) G  |  B   c |A (G/F/)|(F/E/) D |
w:Di-vi-tes et e-ge-* *   ni, Gran-des et par-*  vu-* li,
 (A A/G/)|A     F| D   F|(G2|_B/A/F/G/)|E    D | F   G |(G/F/) D|C2 |
w:Ip-**  sum   in-gre-di- un- * * * *  tur, Ut  cer-nunt o-*  cu-li.
 (A A/G/)|A  F| D  F|(G2|_B/A/F/G/)|E    D| F G|(G/F/) (D/E/4C/4)|D2 ||
w:Et* *  in-de re-ver-tun-* * * *  tur Gra-ti-is re-*   ple-**    ti.
%
V: 2
%Staff 2
%%MIDI program 42
  D2|D F|AD|C2|F2|GA|DC|GA|c2 | D2|D F|AD|C2|F2|GA|DC|FG|A2 | 
  A2|D2|D G|F E-|E C| D F|G A | A2|D2|D G|F E-|E  C|D F|G A  |
  D2|D F|AD|C2|F2|GA|DC|GA|c2 | D2|D F|AD|C2|F2|GA|DC|FG|A2 | 


